svg/600/sharp/oven-fill.svg

<svg xmlns="http://www.w3.org/2000/svg" width="48" height="48" viewBox="0 -960 960 960"><path d="M105.869-651v-203.696h748.827V-651H105.869Zm0 545.131V-621h748.827v515.131H105.869ZM307-701.391q15.957 0 27.783-11.826T346.609-741q0-15.957-11.826-27.783T307-780.609q-15.957 0-27.783 11.826T267.391-741q0 15.957 11.826 27.783T307-701.391ZM381.782-471h197.436v-66.218H381.782V-471ZM480-701.391q15.957 0 27.783-11.826T519.609-741q0-15.957-11.826-27.783T480-780.609q-15.957 0-27.783 11.826T440.391-741q0 15.957 11.826 27.783T480-701.391Zm173 0q15.957 0 27.783-11.826T692.609-741q0-15.957-11.826-27.783T653-780.609q-15.957 0-27.783 11.826T613.391-741q0 15.957 11.826 27.783T653-701.391Z"/></svg>

<svg xmlns="http://www.w3.org/2000/svg" width="48" height="48" viewBox="0 -960 960 960"><path d="M105.87-651v-203.7H854.7V-651H105.87Zm0 545.13V-621H854.7v515.13H105.87ZM307-701.39q15.96 0 27.78-11.83 11.83-11.82 11.83-27.78t-11.83-27.78q-11.82-11.83-27.78-11.83t-27.78 11.83q-11.83 11.82-11.83 27.78t11.83 27.78q11.82 11.83 27.78 11.83ZM381.78-471h197.44v-66.22H381.78V-471ZM480-701.39q15.96 0 27.78-11.83 11.83-11.82 11.83-27.78t-11.83-27.78q-11.82-11.83-27.78-11.83t-27.78 11.83q-11.83 11.82-11.83 27.78t11.83 27.78q11.82 11.83 27.78 11.83Zm173 0q15.96 0 27.78-11.83 11.83-11.82 11.83-27.78t-11.83-27.78q-11.82-11.83-27.78-11.83t-27.78 11.83q-11.83 11.82-11.83 27.78t11.83 27.78q11.82 11.83 27.78 11.83Z"/></svg>
